X: 617
T: The Puff
N: Pub: J. Walsh, London, 1748
S: 2: CCD2  http://petrucci.mus.auth.gr/imglnks/usimg/6/61/IMSLP173105-PMLP149069-caledoniancountr00ingl.pdf p.79 #339
S: 4: ACMV  http://archive.org/details/acompositemusicv01rugg p.4:79 #339
Z: 2012 John Chambers <jc:trillian.mit.edu>
M: C|
L: 1/8
K: A
% - - - - - - - - - - - - - - - - - - - - - - - - -
V: 1
|: aecA aecA | Bcdf  ecBA | aecA aecA | BcdB A2A,2 :|
|: E2Ac E2Bd | E2ce Tc2B2 | A2ce aecA | BdcB A2A,2 :|
% - - - - - - - - - - - - - - - - - - - - - - - - -
V: 2 clef=bass middle=d
|: A2z2 A2z2 | e2E2 A2z2 | a2z2 a2z2 | e2E2 A4 :|
|: e2z2 E2z2 | e2z2 a2e2 | c2A2 a2z2 | e2E2 A4 :|
% - - - - - - - - - - - - - - - - - - - - - - - - -
%%begintext align
%% First Cu lead thro' the 2d and cast up .|
%% Right and Left with the top Cu. :|
%% Cross over two Cu. .|
%% Lead to the top and cast off :|:
%%endtext

%%sep 1 1 500
%%sep 1 1 500
